X: 15262
T: Girl That I Love, The
R: jig
M: 6/8
K: Gmajor
|:g|fed cAG|cAA A/c/A g|fzd cAF|AGF G2 g|
fzd cAA|cde eag|g/f/ed cAF|AGF G2:|
|:d|e/f/ga ged|egf g2d|e/f/ga ged|ea^g a2d|
e/f/ga ged|cde eag|g/f/ed cAF|AGF G2:|
|:B/c/|dgg gfg|c=ff fef|dgg gag|fef g2a|
bag fdc|dAB cde|g/f/ed cAF|AGF G2:|

